X:53
T:Director's Chair
R:Jig
C:Trad, extended by Pete Mac 1989
O:England
Z:Pete Mac Tunebook 2023 (see https://pghardy.net/tunebooks/).
Z:Creative Commons CC0 (Public Domain) licenced.
M:6/8
L:1/8
Q:3/8=105
K:G
GBd|"G"e2 d ^c2 d|B3 GBd|e2 d ^c2 d|"Am"c3-c3|"D7"f3 e3 |f3 e3|f2 e d^c=c|"G"B3 GBd|
"G"e2d ^c2 d|B3GBd|e2d ^c2 d|"Am"c3-c3|"D7"f3 e3 |f3 e3|d2 d def|"G"g3-g3||
"G"B3 ^A2 B|D3-D2 D|GGG G2E|"D"F3-F3|A3^G2 A|D3-D2 D|"D7"ccc B2A|"G"B3-B3|
"G"B3 ^A2 B|D3-D2 D|GGG G2E|"D"F3-F3|"Am"c2 z1 A2 B|c2 z1 A2 z1|"D7"d2 d cBA|"G"G3-"G7"G3||
K:C
"C"e3 ^d2 e|G3-G3|GAB cBA|"G7"B3-B3|=f3 e2 f|G3-G3|GAB cd^d|"C"e3-e3|
"C"e3 ^d2 e|G3-G3|"C7"c2 c cde|"F"=f3-f3|A^GA e2 d|"C"G^FG d2c|"G7"BAG fed|"C"c3|]

